svg/Meteorology/clouds/low_elevation/cumulonimbus.svg

<?xml version="1.0" encoding="UTF-8" standalone="no"?>
<!-- Created with Inkscape (http://www.inkscape.org/) -->
<svg
   xmlns:dc="http://purl.org/dc/elements/1.1/"
   xmlns:cc="http://web.resource.org/cc/"
   xmlns:rdf="http://www.w3.org/1999/02/22-rdf-syntax-ns#"
   xmlns:svg="http://www.w3.org/2000/svg"
   xmlns="http://www.w3.org/2000/svg"
   xmlns:sodipodi="http://sodipodi.sourceforge.net/DTD/sodipodi-0.dtd"
   xmlns:inkscape="http://www.inkscape.org/namespaces/inkscape"
   width="744.09448819"
   height="1052.3622047"
   id="svg2"
   sodipodi:version="0.32"
   inkscape:version="0.44.1"
   sodipodi:docbase="C:\Documents and Settings\pc\Desktop\meteo\clouds"
   sodipodi:docname="Cumulonimbus.svg">
  <defs
     id="defs4" />
  <sodipodi:namedview
     id="base"
     pagecolor="#ffffff"
     bordercolor="#666666"
     borderopacity="1.0"
     inkscape:pageopacity="0.0"
     inkscape:pageshadow="2"
     inkscape:zoom="1.4"
     inkscape:cx="237.0638"
     inkscape:cy="625.91842"
     inkscape:document-units="px"
     inkscape:current-layer="layer1"
     showgrid="true"
     inkscape:window-width="1280"
     inkscape:window-height="744"
     inkscape:window-x="-4"
     inkscape:window-y="-4" />
  <metadata
     id="metadata7">
    <rdf:RDF>
      <cc:Work
         rdf:about="">
        <dc:format>image/svg+xml</dc:format>
        <dc:type
           rdf:resource="http://purl.org/dc/dcmitype/StillImage" />
      </cc:Work>
    </rdf:RDF>
  </metadata>
  <g
     inkscape:label="Livello 1"
     inkscape:groupmode="layer"
     id="layer1">
    <g
       id="g12381">
      <path
         sodipodi:nodetypes="ccc"
         id="path7906"
         d="M 251.06327,464.66477 C 212.84799,422.64812 174.63271,422.64805 136.41741,464.66477 L 135.97098,464.39691"
         style="fill:none;fill-opacity:1;fill-rule:evenodd;stroke:black;stroke-width:2.91980314;stroke-linecap:butt;stroke-linejoin:miter;stroke-miterlimit:4;stroke-dasharray:none;stroke-opacity:1" />
      <path
         id="path7908"
         d="M 250.79164,463.72926 L 250.79164,492.4112 L 250.79164,492.4112"
         style="fill:black;fill-opacity:1;fill-rule:evenodd;stroke:black;stroke-width:2.73415518;stroke-linecap:butt;stroke-linejoin:miter;stroke-miterlimit:4;stroke-dasharray:none;stroke-opacity:1" />
      <path
         id="path8805"
         d="M 135.22806,492.36218 L 251.83432,492.36218"
         style="fill:none;fill-rule:evenodd;stroke:black;stroke-width:3.09289145;stroke-linecap:butt;stroke-linejoin:miter;stroke-miterlimit:4;stroke-dasharray:none;stroke-opacity:1" />
      <path
         id="path9692"
         d="M 136.57723,463.71317 L 136.57723,492.24603 L 136.57723,492.24603"
         style="fill:black;fill-opacity:1;fill-rule:evenodd;stroke:black;stroke-width:2.69537163;stroke-linecap:butt;stroke-linejoin:miter;stroke-miterlimit:4;stroke-dasharray:none;stroke-opacity:1" />
      <path
         id="path11490"
         d="M 144.50196,421.21033 L 164.7125,441.01367 L 164.7125,441.01367"
         style="fill:black;fill-opacity:1;fill-rule:evenodd;stroke:black;stroke-width:2.69704127;stroke-linecap:butt;stroke-linejoin:miter;stroke-miterlimit:4;stroke-dasharray:none;stroke-opacity:1" />
      <path
         id="path11492"
         d="M 244.13885,420.71391 L 223.85765,440.99511 L 223.85765,440.99511"
         style="fill:black;fill-opacity:1;fill-rule:evenodd;stroke:black;stroke-width:2.73415518;stroke-linecap:butt;stroke-linejoin:miter;stroke-miterlimit:4;stroke-dasharray:none;stroke-opacity:1" />
      <path
         id="path11494"
         d="M 143.54504,420.72452 L 245.04808,420.17125"
         style="fill:none;fill-rule:evenodd;stroke:black;stroke-width:2.91816425;stroke-linecap:butt;stroke-linejoin:miter;stroke-miterlimit:4;stroke-dasharray:none;stroke-opacity:1" />
    </g>
  </g>
</svg>

<svg xmlns="http://www.w3.org/2000/svg" viewBox="0 0 744.09 1052.36"><g fill-rule="evenodd" stroke="#000"><path d="m251.06 464.66c-38.22-42.02-76.43-42.02-114.65 0l-.446-.268" fill="none" stroke-width="2.92"/><path d="m250.79 463.73v28.682" stroke-width="2.734"/><path d="m135.23 492.36h116.61" fill="none" stroke-width="3.093"/><path d="m136.58 463.71v28.533" stroke-width="2.695"/><path d="m144.5 421.21l20.21 19.803" stroke-width="2.697"/><path d="m244.14 420.71l-20.281 20.281" stroke-width="2.734"/><path d="m143.55 420.72l101.5-.553" fill="none" stroke-width="2.918"/></g></svg>
